blog/demystifying-the-load-balancing-in-istio/istio-load-balancing.svg

<svg xmlns="http://www.w3.org/2000/svg" xmlns:xl="http://www.w3.org/1999/xlink" width="519" height="333" version="1.1" viewBox="322 457 519 333"><defs><marker id="FilledArrow_Marker" stroke-linejoin="miter" stroke-miterlimit="10" color="#000" markerHeight="6" markerUnits="strokeWidth" markerWidth="7" orient="auto" overflow="visible" viewBox="-1 -3 7 6"><g><path fill="currentColor" stroke="currentColor" stroke-width="1" d="M 4.8 0 L 0 -1.8 L 0 1.8 Z"/></g></marker></defs><g id="istio-load-balancing" fill="none" fill-opacity="1" stroke="none" stroke-dasharray="none" stroke-opacity="1"><title>istio-load-balancing</title><rect width="519" height="333" x="322" y="457" fill="#fff"/><g id="istio-load-balancing_Layer_1"><title>Layer 1</title><g id="Graphic_45"><rect width="146.288" height="29.464" x="488.86" y="718.5" fill="#fff"/><text fill="#000" transform="translate(493.85965 723.5)"><tspan x="0" y="16" fill="#000" font-family="Helvetica Neue" font-size="16" font-weight="bold">2. Load Balancing</tspan></text></g><g id="Graphic_26"><path fill="#fff" d="M 330.5 600.2751 L 478.916 600.2751 C 483.3343 600.2751 486.916 603.8568 486.916 608.2751 L 486.916 767.0502 C 486.916 771.4685 483.3343 775.0502 478.916 775.0502 L 330.5 775.0502 C 326.08172 775.0502 322.5 771.4685 322.5 767.0502 L 322.5 608.2751 C 322.5 603.8568 326.08172 600.2751 330.5 600.2751 Z"/><path stroke="gray" stroke-dasharray="4 4" stroke-linecap="round" stroke-linejoin="round" stroke-width="1" d="M 330.5 600.2751 L 478.916 600.2751 C 483.3343 600.2751 486.916 603.8568 486.916 608.2751 L 486.916 767.0502 C 486.916 771.4685 483.3343 775.0502 478.916 775.0502 L 330.5 775.0502 C 326.08172 775.0502 322.5 771.4685 322.5 767.0502 L 322.5 608.2751 C 322.5 603.8568 326.08172 600.2751 330.5 600.2751 Z"/><text fill="#000" transform="translate(327.5 750.5861)"><tspan x="62.096" y="16" fill="#000" font-family="Helvetica Neue" font-size="16" font-weight="bold">Pod</tspan></text></g><g id="Graphic_14"><path fill="#0a55a8" d="M 351.208 614.0502 L 458.208 614.0502 C 462.6263 614.0502 466.208 617.6319 466.208 622.0502 L 466.208 660.0502 C 466.208 664.4685 462.6263 668.0502 458.208 668.0502 L 351.208 668.0502 C 346.78972 668.0502 343.208 664.4685 343.208 660.0502 L 343.208 622.0502 C 343.208 617.6319 346.78972 614.0502 351.208 614.0502 Z"/><text fill="#fff" transform="translate(348.208 631.3181)"><tspan x="34.292" y="16" fill="#fff" font-family="Helvetica Neue" font-size="16" font-weight="bold">Client</tspan></text></g><g id="Graphic_10"><path fill="#0a55a8" d="M 514 457 L 621 457 C 625.4183 457 629 460.5817 629 465 L 629 503 C 629 507.4183 625.4183 511 621 511 L 514 511 C 509.5817 511 506 507.4183 506 503 L 506 465 C 506 460.5817 509.5817 457 514 457 Z"/><text fill="#fff" transform="translate(511 474.26794)"><tspan x="35.188" y="16" fill="#fff" font-family="Helvetica Neue" font-size="16" font-weight="bold">Istiod</tspan></text></g><g id="Line_9"><path stroke="#000" stroke-linecap="round" stroke-linejoin="round" stroke-width="2" marker-end="url(#FilledArrow_Marker)" d="M 452.16275 688.0502 C 479.3893 670.149 512.68487 643.8662 536 610.7751 C 558.72203 578.5258 566.7009 547.2814 568.94843 523.8796"/></g><g id="Graphic_8"><rect width="164.416" height="29.464" x="479.796" y="543.629" fill="#fff"/><text fill="#000" transform="translate(484.79565 548.6292)"><tspan x="0" y="16" fill="#000" font-family="Helvetica Neue" font-size="16" font-weight="bold">1. Service Discovery</tspan></text></g><g id="Graphic_24"><path fill="#0a55a8" d="M 351.208 688.0502 L 458.208 688.0502 C 462.6263 688.0502 466.208 691.6319 466.208 696.0502 L 466.208 734.0502 C 466.208 738.4685 462.6263 742.0502 458.208 742.0502 L 351.208 742.0502 C 346.78972 742.0502 343.208 738.4685 343.208 734.0502 L 343.208 696.0502 C 343.208 691.6319 346.78972 688.0502 351.208 688.0502 Z"/><text fill="#fff" transform="translate(348.208 705.3181)"><tspan x="9.508" y="16" fill="#fff" font-family="Helvetica Neue" font-size="16" font-weight="bold">Envoy Proxy</tspan></text></g><g id="Group_34"><g id="Graphic_15"><path fill="#fff" d="M 654 586.5 L 802.416 586.5 C 806.8343 586.5 810.416 590.0817 810.416 594.5 L 810.416 753.2751 C 810.416 757.6934 806.8343 761.2751 802.416 761.2751 L 654 761.2751 C 649.5817 761.2751 646 757.6934 646 753.2751 L 646 594.5 C 646 590.0817 649.5817 586.5 654 586.5 Z"/><path stroke="gray" stroke-dasharray="4 4" stroke-linecap="round" stroke-linejoin="round" stroke-width="1" d="M 654 586.5 L 802.416 586.5 C 806.8343 586.5 810.416 590.0817 810.416 594.5 L 810.416 753.2751 C 810.416 757.6934 806.8343 761.2751 802.416 761.2751 L 654 761.2751 C 649.5817 761.2751 646 757.6934 646 753.2751 L 646 594.5 C 646 590.0817 649.5817 586.5 654 586.5 Z"/><text fill="#000" transform="translate(651 736.811)"><tspan x="62.096" y="16" fill="#000" font-family="Helvetica Neue" font-size="16" font-weight="bold">Pod</tspan></text></g><g id="Graphic_13"><path fill="#0a55a8" d="M 669.9987 610.7751 L 776.9987 610.7751 C 781.417 610.7751 784.9987 614.3568 784.9987 618.7751 L 784.9987 656.7751 C 784.9987 661.1934 781.417 664.7751 776.9987 664.7751 L 669.9987 664.7751 C 665.5804 664.7751 661.9987 661.1934 661.9987 656.7751 L 661.9987 618.7751 C 661.9987 614.3568 665.5804 610.7751 669.9987 610.7751 Z"/><text fill="#fff" transform="translate(666.9987 628.043)"><tspan x="16.06" y="16" fill="#fff" font-family="Helvetica Neue" font-size="16" font-weight="bold">Instance A</tspan></text></g><g id="Graphic_25"><path fill="#0a55a8" d="M 669.9987 678.5 L 776.9987 678.5 C 781.417 678.5 784.9987 682.0817 784.9987 686.5 L 784.9987 724.5 C 784.9987 728.9183 781.417 732.5 776.9987 732.5 L 669.9987 732.5 C 665.5804 732.5 661.9987 728.9183 661.9987 724.5 L 661.9987 686.5 C 661.9987 682.0817 665.5804 678.5 669.9987 678.5 Z"/><text fill="#fff" transform="translate(666.9987 695.76794)"><tspan x="9.508" y="16" fill="#fff" font-family="Helvetica Neue" font-size="16" font-weight="bold">Envoy Proxy</tspan></text></g></g><g id="Line_27"><line x1="466.208" x2="649.105" y1="713.208" y2="707.729" stroke="#000" stroke-linecap="round" stroke-linejoin="round" stroke-width="2" marker-end="url(#FilledArrow_Marker)"/></g><g id="Group_35"><g id="Graphic_38"><path fill="#fff" d="M 670 600.2751 L 818.416 600.2751 C 822.8343 600.2751 826.416 603.8568 826.416 608.2751 L 826.416 767.0502 C 826.416 771.4685 822.8343 775.0502 818.416 775.0502 L 670 775.0502 C 665.5817 775.0502 662 771.4685 662 767.0502 L 662 608.2751 C 662 603.8568 665.5817 600.2751 670 600.2751 Z"/><path stroke="gray" stroke-dasharray="4 4" stroke-linecap="round" stroke-linejoin="round" stroke-width="1" d="M 670 600.2751 L 818.416 600.2751 C 822.8343 600.2751 826.416 603.8568 826.416 608.2751 L 826.416 767.0502 C 826.416 771.4685 822.8343 775.0502 818.416 775.0502 L 670 775.0502 C 665.5817 775.0502 662 771.4685 662 767.0502 L 662 608.2751 C 662 603.8568 665.5817 600.2751 670 600.2751 Z"/><text fill="#000" transform="translate(667 750.5861)"><tspan x="62.096" y="16" fill="#000" font-family="Helvetica Neue" font-size="16" font-weight="bold">Pod</tspan></text></g><g id="Graphic_37"><path fill="#0a55a8" d="M 685.9987 624.5502 L 792.9987 624.5502 C 797.417 624.5502 800.9987 628.1319 800.9987 632.5502 L 800.9987 670.5502 C 800.9987 674.9685 797.417 678.5502 792.9987 678.5502 L 685.9987 678.5502 C 681.5804 678.5502 677.9987 674.9685 677.9987 670.5502 L 677.9987 632.5502 C 677.9987 628.1319 681.5804 624.5502 685.9987 624.5502 Z"/><text fill="#fff" transform="translate(682.9987 641.8181)"><tspan x="16.06" y="16" fill="#fff" font-family="Helvetica Neue" font-size="16" font-weight="bold">Instance A</tspan></text></g><g id="Graphic_36"><path fill="#0a55a8" d="M 685.9987 692.2751 L 792.9987 692.2751 C 797.417 692.2751 800.9987 695.8568 800.9987 700.2751 L 800.9987 738.2751 C 800.9987 742.6934 797.417 746.2751 792.9987 746.2751 L 685.9987 746.2751 C 681.5804 746.2751 677.9987 742.6934 677.9987 738.2751 L 677.9987 700.2751 C 677.9987 695.8568 681.5804 692.2751 685.9987 692.2751 Z"/><text fill="#fff" transform="translate(682.9987 709.543)"><tspan x="9.508" y="16" fill="#fff" font-family="Helvetica Neue" font-size="16" font-weight="bold">Envoy Proxy</tspan></text></g></g><g id="Group_39"><g id="Graphic_42"><path fill="#fff" d="M 684 613.88755 L 832.416 613.88755 C 836.8343 613.88755 840.416 617.4693 840.416 621.88755 L 840.416 780.6626 C 840.416 785.0809 836.8343 788.6626 832.416 788.6626 L 684 788.6626 C 679.5817 788.6626 676 785.0809 676 780.6626 L 676 621.88755 C 676 617.4693 679.5817 613.88755 684 613.88755 Z"/><path stroke="gray" stroke-dasharray="4 4" stroke-linecap="round" stroke-linejoin="round" stroke-width="1" d="M 684 613.88755 L 832.416 613.88755 C 836.8343 613.88755 840.416 617.4693 840.416 621.88755 L 840.416 780.6626 C 840.416 785.0809 836.8343 788.6626 832.416 788.6626 L 684 788.6626 C 679.5817 788.6626 676 785.0809 676 780.6626 L 676 621.88755 C 676 617.4693 679.5817 613.88755 684 613.88755 Z"/><text fill="#000" transform="translate(681 764.1985)"><tspan x="62.096" y="16" fill="#000" font-family="Helvetica Neue" font-size="16" font-weight="bold">Pod</tspan></text></g><g id="Graphic_41"><path fill="#0a55a8" d="M 699.9987 638.16264 L 806.9987 638.16264 C 811.417 638.16264 814.9987 641.74436 814.9987 646.16264 L 814.9987 684.1626 C 814.9987 688.5809 811.417 692.1626 806.9987 692.1626 L 699.9987 692.1626 C 695.5804 692.1626 691.9987 688.5809 691.9987 684.1626 L 691.9987 646.16264 C 691.9987 641.74436 695.5804 638.16264 699.9987 638.16264 Z"/><text fill="#fff" transform="translate(696.9987 655.4306)"><tspan x="16.06" y="16" fill="#fff" font-family="Helvetica Neue" font-size="16" font-weight="bold">Instance A</tspan></text></g><g id="Graphic_40"><path fill="#0a55a8" d="M 699.9987 705.88755 L 806.9987 705.88755 C 811.417 705.88755 814.9987 709.4693 814.9987 713.88755 L 814.9987 751.88755 C 814.9987 756.3058 811.417 759.88755 806.9987 759.88755 L 699.9987 759.88755 C 695.5804 759.88755 691.9987 756.3058 691.9987 751.88755 L 691.9987 713.88755 C 691.9987 709.4693 695.5804 705.88755 699.9987 705.88755 Z"/><text fill="#fff" transform="translate(696.9987 723.1555)"><tspan x="9.508" y="16" fill="#fff" font-family="Helvetica Neue" font-size="16" font-weight="bold">Envoy Proxy</tspan></text></g></g><g id="Line_43"><path stroke="#000" stroke-linecap="round" stroke-linejoin="round" stroke-width="2" marker-end="url(#FilledArrow_Marker)" d="M 466.208 714.1339 C 498.3366 714.10984 540.42253 714.7154 585.98485 717.04545 C 621.5435 718.86394 653.20246 721.4251 679.1637 723.959"/></g><g id="Line_44"><path stroke="#000" stroke-linecap="round" stroke-linejoin="round" stroke-width="2" marker-end="url(#FilledArrow_Marker)" d="M 466.208 713.1803 C 486.0603 711.7797 510.7968 709.46516 540.5303 705.6818 C 572.3198 701.6369 604.6362 696.57275 633.2893 691.6831"/></g></g></g></svg>

<svg xmlns="http://www.w3.org/2000/svg" width="519" height="333" viewBox="322 457 519 333"><defs><marker id="a" stroke-linejoin="miter" stroke-miterlimit="10" color="#000" markerHeight="6" markerUnits="strokeWidth" markerWidth="7" orient="auto" overflow="visible" viewBox="-1 -3 7 6"><path fill="currentColor" stroke="currentColor" d="M4.8 0 0-1.8v3.6Z"/></marker></defs><g fill="none"><path fill="#fff" d="M322 457h519v333H322z"/><path fill="#fff" d="M488.86 718.5h146.288v29.464H488.86z"/><text fill="#000" transform="translate(493.86 723.5)"><tspan x="0" y="16" font-family="Helvetica Neue" font-size="16" font-weight="bold">2. Load Balancing</tspan></text><path fill="#fff" d="M330.5 600.275h148.416a8 8 0 0 1 8 8V767.05a8 8 0 0 1-8 8H330.5a8 8 0 0 1-8-8V608.275a8 8 0 0 1 8-8"/><path stroke="gray" stroke-dasharray="4 4" stroke-linecap="round" stroke-linejoin="round" d="M330.5 600.275h148.416a8 8 0 0 1 8 8V767.05a8 8 0 0 1-8 8H330.5a8 8 0 0 1-8-8V608.275a8 8 0 0 1 8-8"/><text fill="#000" transform="translate(327.5 750.586)"><tspan x="62.096" y="16" font-family="Helvetica Neue" font-size="16" font-weight="bold">Pod</tspan></text><path fill="#0a55a8" d="M351.208 614.05h107a8 8 0 0 1 8 8v38a8 8 0 0 1-8 8h-107a8 8 0 0 1-8-8v-38a8 8 0 0 1 8-8"/><text fill="#fff" transform="translate(348.208 631.318)"><tspan x="34.292" y="16" font-family="Helvetica Neue" font-size="16" font-weight="bold">Client</tspan></text><path fill="#0a55a8" d="M514 457h107a8 8 0 0 1 8 8v38a8 8 0 0 1-8 8H514a8 8 0 0 1-8-8v-38a8 8 0 0 1 8-8"/><text fill="#fff" transform="translate(511 474.268)"><tspan x="35.188" y="16" font-family="Helvetica Neue" font-size="16" font-weight="bold">Istiod</tspan></text><path stroke="#000" stroke-linecap="round" stroke-linejoin="round" stroke-width="2" marker-end="url(#a)" d="M452.163 688.05c27.226-17.901 60.522-44.184 83.837-77.275 22.722-32.25 30.7-63.494 32.948-86.895"/><path fill="#fff" d="M479.796 543.629h164.416v29.464H479.796z"/><text fill="#000" transform="translate(484.796 548.63)"><tspan x="0" y="16" font-family="Helvetica Neue" font-size="16" font-weight="bold">1. Service Discovery</tspan></text><path fill="#0a55a8" d="M351.208 688.05h107a8 8 0 0 1 8 8v38a8 8 0 0 1-8 8h-107a8 8 0 0 1-8-8v-38a8 8 0 0 1 8-8"/><text fill="#fff" transform="translate(348.208 705.318)"><tspan x="9.508" y="16" font-family="Helvetica Neue" font-size="16" font-weight="bold">Envoy Proxy</tspan></text><path fill="#fff" d="M654 586.5h148.416a8 8 0 0 1 8 8v158.775a8 8 0 0 1-8 8H654a8 8 0 0 1-8-8V594.5a8 8 0 0 1 8-8"/><path stroke="gray" stroke-dasharray="4 4" stroke-linecap="round" stroke-linejoin="round" d="M654 586.5h148.416a8 8 0 0 1 8 8v158.775a8 8 0 0 1-8 8H654a8 8 0 0 1-8-8V594.5a8 8 0 0 1 8-8"/><text fill="#000" transform="translate(651 736.811)"><tspan x="62.096" y="16" font-family="Helvetica Neue" font-size="16" font-weight="bold">Pod</tspan></text><path fill="#0a55a8" d="M669.999 610.775h107a8 8 0 0 1 8 8v38a8 8 0 0 1-8 8h-107a8 8 0 0 1-8-8v-38a8 8 0 0 1 8-8"/><text fill="#fff" transform="translate(666.999 628.043)"><tspan x="16.06" y="16" font-family="Helvetica Neue" font-size="16" font-weight="bold">Instance A</tspan></text><path fill="#0a55a8" d="M669.999 678.5h107a8 8 0 0 1 8 8v38a8 8 0 0 1-8 8h-107a8 8 0 0 1-8-8v-38a8 8 0 0 1 8-8"/><text fill="#fff" transform="translate(666.999 695.768)"><tspan x="9.508" y="16" font-family="Helvetica Neue" font-size="16" font-weight="bold">Envoy Proxy</tspan></text><path stroke="#000" stroke-linecap="round" stroke-linejoin="round" stroke-width="2" marker-end="url(#a)" d="m466.208 713.208 182.897-5.479"/><path fill="#fff" d="M670 600.275h148.416a8 8 0 0 1 8 8V767.05a8 8 0 0 1-8 8H670a8 8 0 0 1-8-8V608.275a8 8 0 0 1 8-8"/><path stroke="gray" stroke-dasharray="4 4" stroke-linecap="round" stroke-linejoin="round" d="M670 600.275h148.416a8 8 0 0 1 8 8V767.05a8 8 0 0 1-8 8H670a8 8 0 0 1-8-8V608.275a8 8 0 0 1 8-8"/><text fill="#000" transform="translate(667 750.586)"><tspan x="62.096" y="16" font-family="Helvetica Neue" font-size="16" font-weight="bold">Pod</tspan></text><path fill="#0a55a8" d="M685.999 624.55h107a8 8 0 0 1 8 8v38a8 8 0 0 1-8 8h-107a8 8 0 0 1-8-8v-38a8 8 0 0 1 8-8"/><text fill="#fff" transform="translate(682.999 641.818)"><tspan x="16.06" y="16" font-family="Helvetica Neue" font-size="16" font-weight="bold">Instance A</tspan></text><path fill="#0a55a8" d="M685.999 692.275h107a8 8 0 0 1 8 8v38a8 8 0 0 1-8 8h-107a8 8 0 0 1-8-8v-38a8 8 0 0 1 8-8"/><text fill="#fff" transform="translate(682.999 709.543)"><tspan x="9.508" y="16" font-family="Helvetica Neue" font-size="16" font-weight="bold">Envoy Proxy</tspan></text><path fill="#fff" d="M684 613.888h148.416a8 8 0 0 1 8 8v158.775a8 8 0 0 1-8 8H684a8 8 0 0 1-8-8V621.888a8 8 0 0 1 8-8"/><path stroke="gray" stroke-dasharray="4 4" stroke-linecap="round" stroke-linejoin="round" d="M684 613.888h148.416a8 8 0 0 1 8 8v158.775a8 8 0 0 1-8 8H684a8 8 0 0 1-8-8V621.888a8 8 0 0 1 8-8"/><text fill="#000" transform="translate(681 764.198)"><tspan x="62.096" y="16" font-family="Helvetica Neue" font-size="16" font-weight="bold">Pod</tspan></text><path fill="#0a55a8" d="M699.999 638.163h107a8 8 0 0 1 8 8v38a8 8 0 0 1-8 8h-107a8 8 0 0 1-8-8v-38a8 8 0 0 1 8-8"/><text fill="#fff" transform="translate(696.999 655.43)"><tspan x="16.06" y="16" font-family="Helvetica Neue" font-size="16" font-weight="bold">Instance A</tspan></text><path fill="#0a55a8" d="M699.999 705.888h107a8 8 0 0 1 8 8v38a8 8 0 0 1-8 8h-107a8 8 0 0 1-8-8v-38a8 8 0 0 1 8-8"/><text fill="#fff" transform="translate(696.999 723.155)"><tspan x="9.508" y="16" font-family="Helvetica Neue" font-size="16" font-weight="bold">Envoy Proxy</tspan></text><path stroke="#000" stroke-linecap="round" stroke-linejoin="round" stroke-width="2" marker-end="url(#a)" d="M466.208 714.134c32.129-.024 74.215.581 119.777 2.911a2033 2033 0 0 1 93.179 6.914"/><path stroke="#000" stroke-linecap="round" stroke-linejoin="round" stroke-width="2" marker-end="url(#a)" d="M466.208 713.18c19.852-1.4 44.589-3.715 74.322-7.498 31.79-4.045 64.106-9.11 92.76-13.999"/></g></svg>
